assets/svg/icon_feed_whatsapp.svg

<svg width="24" height="24" viewBox="0 0 24 24" fill="none" xmlns="http://www.w3.org/2000/svg">
<path d="M11.9998 20.4H4.6205C4.34984 20.3997 4.09035 20.2921 3.89896 20.1007C3.70757 19.9093 3.59991 19.6498 3.59961 19.3792V11.9998C3.59961 10.3384 4.09227 8.71432 5.0153 7.33291C5.93832 5.95151 7.25026 4.87483 8.78519 4.23904C10.3201 3.60325 12.0091 3.4369 13.6386 3.76102C15.2681 4.08514 16.7649 4.88519 17.9396 6.05997C19.1144 7.23476 19.9145 8.73153 20.2386 10.361C20.5627 11.9905 20.3964 13.6795 19.7606 15.2144C19.1248 16.7494 18.0481 18.0613 16.6667 18.9843C15.2853 19.9073 13.6612 20.4 11.9998 20.4Z" stroke="#0E0E0E" stroke-width="1.2"/>
<path d="M13.7582 15.6095H13.7502C13.0121 15.6095 12.2812 15.4639 11.5994 15.1812C10.9176 14.8985 10.2982 14.4842 9.77667 13.9619C9.25513 13.4396 8.84167 12.8197 8.55993 12.1374C8.2782 11.4552 8.13373 10.7242 8.13477 9.98607C8.13681 9.51712 8.32455 9.06807 8.65689 8.73722C8.98924 8.40636 9.43912 8.22064 9.90807 8.2207C9.94574 8.22075 9.98273 8.23073 10.0153 8.24963C10.0479 8.26853 10.0749 8.29568 10.0937 8.32836L10.9575 9.84017C10.9835 9.88576 10.9969 9.93744 10.9963 9.98993C10.9958 10.0424 10.9813 10.0938 10.9543 10.1388L10.2605 11.295C10.236 11.3359 10.2217 11.3821 10.2189 11.4297C10.2161 11.4773 10.2249 11.5248 10.2444 11.5683C10.6302 12.4268 11.3174 13.1141 12.176 13.4998C12.2194 13.5194 12.267 13.5282 12.3146 13.5253C12.3622 13.5225 12.4084 13.5082 12.4492 13.4837L13.6054 12.79C13.6504 12.763 13.7018 12.7485 13.7543 12.7479C13.8068 12.7473 13.8585 12.7607 13.9041 12.7867L15.4159 13.6506C15.4486 13.6694 15.4757 13.6964 15.4946 13.7289C15.5135 13.7615 15.5235 13.7985 15.5235 13.8362C15.5236 14.3051 15.3379 14.755 15.007 15.0873C14.6762 15.4197 14.2271 15.6074 13.7582 15.6095Z" stroke="#0E0E0E" stroke-width="1.2"/>
</svg>

<svg xmlns="http://www.w3.org/2000/svg" width="24" height="24" fill="none"><path stroke="#0E0E0E" stroke-width="1.2" d="M12 20.4H4.62a1.02 1.02 0 0 1-1.02-1.02V12a8.4 8.4 0 1 1 8.4 8.4Z"/><path stroke="#0E0E0E" stroke-width="1.2" d="M13.758 15.61h-.008a5.616 5.616 0 0 1-5.615-5.624 1.773 1.773 0 0 1 1.773-1.765.21.21 0 0 1 .186.107l.864 1.512a.3.3 0 0 1-.004.299l-.694 1.156a.3.3 0 0 0-.016.273 3.85 3.85 0 0 0 1.932 1.932.3.3 0 0 0 .273-.016l1.156-.694a.3.3 0 0 1 .3-.003l1.51.864a.22.22 0 0 1 .109.185 1.773 1.773 0 0 1-1.766 1.774Z"/></svg>
